X: 10754
Q: "Slow and expressive."
M: 6/8
L: 1/16
K: Em
EF |\
dB3A2 G3AB2 | G3ATF2 E4 |]
(3(B^c^d) |\
e3^de2 T=d3(^cd2) | e3^de2 =d4(ef) |\
g3ab2 e2d2c2 | (TB3AB2) He4 (3(gfe) |\
d3BA2 G3AB2 | G3ATF2 {EF}[E4G,4] |]


